X: 913
T: Alina MacAskill
R: jig
M: 6/8
K: Edorian
|:edB AAA|Bdd e3|aee edB|ddd e3|
dee edB|ddd G2B|Ggg fed|Bgd e3:|
|:A2e Aee|egf e3|aee edB|ddd e3|
dee edB|ddd G2B|Ggg fed|Bgd e3:|
|:AAA B3|ddd e3|g3aee|ged e3|
gfg fdd|edB G2B|Ggg fed|Bgd e3:|
|:aeg fdd|egf e3|d2e dBd|Ggd e3|
[1aeg fdd|ede dBB|Ggg fed|Bgd e3:|
[2ddd ede|dBd GBB|Ggg fed|Bgd e3||

